assets/svg/empty_milestone.svg

<svg fill="none" height="60" viewBox="0 0 60 60" width="60" xmlns="http://www.w3.org/2000/svg"><path d="m30 59.5c-.78 0-1.5528-.0303-2.3174-.0897l-.0387.4985c-1.588-.1233-3.1413-.3703-4.6503-.7314l.1164-.4862c-1.5163-.3628-2.987-.8426-4.4021-1.4295l-.1915.4619c-1.4594-.6052-2.8607-1.3223-4.1932-2.1405l.2617-.4261c-1.3201-.8107-2.5716-1.7223-3.7437-2.7243l-.3249.38c-1.19449-1.0212-2.30785-2.1345-3.32904-3.329l.38006-.3249c-1.00198-1.1721-1.91366-2.4236-2.72432-3.7437l-.42607.2617c-.81825-1.3325-1.53532-2.7338-2.14052-4.1932l.46187-.1915c-.58684-1.4151-1.06668-2.8859-1.42944-4.4021l-.486272.1164c-.361034-1.509-.608043-3.0623-.7314093-4.6503l.4984983-.0387c-.059397-.7646-.089657-1.5374-.089657-2.3174s.03026-1.5528.089657-2.3174l-.4984978-.0387c.1233668-1.588.3703758-3.1413.7314098-4.6503l.486271.1164c.36276-1.5163.8426-2.987 1.42944-4.4021l-.46186-.1915c.60519-1.4594 1.32226-2.8607 2.14051-4.1932l.42608.2617c.81065-1.3201 1.72234-2.5716 2.72431-3.7437l-.38005-.3249c1.02118-1.19449 2.13454-2.30785 3.32903-3.32904l.3249.38006c1.1721-1.00198 2.4236-1.91366 3.7437-2.72432l-.2617-.42607c1.3325-.81825 2.7338-1.53532 4.1932-2.14052l.1915.46187c1.4151-.58684 2.8859-1.06668 4.4021-1.42944l-.1164-.486272c1.509-.361034 3.0623-.608043 4.6503-.7314093l.0387.4984983c.7646-.059397 1.5374-.089657 2.3174-.089657s1.5528.03026 2.3174.089657l.0387-.4984977c1.588.1233667 3.1413.3703757 4.6503.7314097l-.1164.486271c1.5162.36276 2.987.8426 4.4021 1.42944l.1915-.46186c1.4594.60519 2.8607 1.32226 4.1932 2.14051l-.2617.42608c1.3201.81065 2.5716 1.72234 3.7437 2.72431l.3249-.38005c1.1945 1.02118 2.3079 2.13454 3.329 3.32903l-.38.3249c1.002 1.1721 1.9136 2.4236 2.7243 3.7437l.4261-.2617c.8182 1.3325 1.5353 2.7338 2.1405 4.1932l-.4619.1915c.5869 1.4151 1.0667 2.8859 1.4295 4.4021l.4862-.1164c.3611 1.509.6081 3.0623.7314 4.6503l-.4985.0387c.0594.7646.0897 1.5374.0897 2.3174s-.0303 1.5528-.0897 2.3174l.4985.0387c-.1233 1.588-.3703 3.1413-.7314 4.6503l-.4862-.1164c-.3628 1.5162-.8426 2.987-1.4295 4.4021l.4619.1915c-.6052 1.4594-1.3223 2.8607-2.1405 4.1932l-.4261-.2617c-.8107 1.3201-1.7223 2.5716-2.7243 3.7437l.38.3249c-1.0212 1.1945-2.1345 2.3079-3.329 3.329l-.3249-.38c-1.1721 1.002-2.4236 1.9136-3.7437 2.7243l.2617.4261c-1.3325.8182-2.7338 1.5353-4.1932 2.1405l-.1915-.4619c-1.4151.5869-2.8859 1.0667-4.4021 1.4295l.1164.4862c-1.509.3611-3.0623.6081-4.6503.7314l-.0387-.4985c-.7646.0594-1.5374.0897-2.3174.0897z" fill="#ecf4fa" fill-opacity=".5" stroke="#d8e2ea" stroke-dasharray="5 5"/></svg>

<svg width="60" height="60" viewBox="0 0 60 60" fill="none" xmlns="http://www.w3.org/2000/svg">
<path d="M30 59.5C29.22 59.5 28.4472 59.4697 27.6826 59.4103L27.6439 59.9088C26.0559 59.7855 24.5026 59.5385 22.9936 59.1774L23.11 58.6912C21.5937 58.3284 20.123 57.8486 18.7079 57.2617L18.5164 57.7236C17.057 57.1184 15.6557 56.4013 14.3232 55.5831L14.5849 55.157C13.2648 54.3463 12.0133 53.4347 10.8412 52.4327L10.5163 52.8127C9.32181 51.7915 8.20845 50.6782 7.18726 49.4837L7.56732 49.1588C6.56534 47.9867 5.65366 46.7352 4.843 45.4151L4.41693 45.6768C3.59868 44.3443 2.88161 42.943 2.27641 41.4836L2.73828 41.2921C2.15144 39.877 1.6716 38.4062 1.30884 36.89L0.822568 37.0064C0.461534 35.4974 0.214525 33.9441 0.0911587 32.3561L0.589657 32.3174C0.53026 31.5528 0.5 30.78 0.5 30C0.5 29.22 0.53026 28.4472 0.589657 27.6826L0.0911592 27.6439C0.214526 26.0559 0.461535 24.5026 0.822569 22.9936L1.30884 23.11C1.6716 21.5937 2.15144 20.123 2.73828 18.7079L2.27642 18.5164C2.88161 17.057 3.59868 15.6557 4.41693 14.3232L4.84301 14.5849C5.65366 13.2648 6.56535 12.0133 7.56732 10.8412L7.18727 10.5163C8.20845 9.32181 9.32181 8.20845 10.5163 7.18726L10.8412 7.56732C12.0133 6.56534 13.2648 5.65366 14.5849 4.843L14.3232 4.41693C15.6557 3.59868 17.057 2.88161 18.5164 2.27641L18.7079 2.73828C20.123 2.15144 21.5938 1.6716 23.11 1.30884L22.9936 0.822568C24.5026 0.461534 26.0559 0.214525 27.6439 0.0911587L27.6826 0.589657C28.4472 0.53026 29.22 0.5 30 0.5C30.78 0.5 31.5528 0.53026 32.3174 0.589657L32.3561 0.0911593C33.9441 0.214526 35.4974 0.461535 37.0064 0.822569L36.89 1.30884C38.4062 1.6716 39.877 2.15144 41.2921 2.73828L41.4836 2.27642C42.943 2.88161 44.3443 3.59868 45.6768 4.41693L45.4151 4.84301C46.7352 5.65366 47.9867 6.56535 49.1588 7.56732L49.4837 7.18727C50.6782 8.20845 51.7916 9.32181 52.8127 10.5163L52.4327 10.8412C53.4347 12.0133 54.3463 13.2648 55.157 14.5849L55.5831 14.3232C56.4013 15.6557 57.1184 17.057 57.7236 18.5164L57.2617 18.7079C57.8486 20.123 58.3284 21.5938 58.6912 23.11L59.1774 22.9936C59.5385 24.5026 59.7855 26.0559 59.9088 27.6439L59.4103 27.6826C59.4697 28.4472 59.5 29.22 59.5 30C59.5 30.78 59.4697 31.5528 59.4103 32.3174L59.9088 32.3561C59.7855 33.9441 59.5385 35.4974 59.1774 37.0064L58.6912 36.89C58.3284 38.4062 57.8486 39.877 57.2617 41.2921L57.7236 41.4836C57.1184 42.943 56.4013 44.3443 55.5831 45.6768L55.157 45.4151C54.3463 46.7352 53.4347 47.9867 52.4327 49.1588L52.8127 49.4837C51.7915 50.6782 50.6782 51.7916 49.4837 52.8127L49.1588 52.4327C47.9867 53.4347 46.7352 54.3463 45.4151 55.157L45.6768 55.5831C44.3443 56.4013 42.943 57.1184 41.4836 57.7236L41.2921 57.2617C39.877 57.8486 38.4062 58.3284 36.89 58.6912L37.0064 59.1774C35.4974 59.5385 33.9441 59.7855 32.3561 59.9088L32.3174 59.4103C31.5528 59.4697 30.78 59.5 30 59.5Z" fill="#ECF4FA" fill-opacity="0.5" stroke="#D8E2EA" stroke-dasharray="5 5"/>
</svg>
